assets/icons/tierbadge-admin.svg

<?xml version="1.0" encoding="UTF-8" standalone="no"?><!DOCTYPE svg PUBLIC "-//W3C//DTD SVG 1.1//EN" "http://www.w3.org/Graphics/SVG/1.1/DTD/svg11.dtd"><svg width="100%" height="100%" viewBox="0 0 1102 1102" version="1.1" xmlns="http://www.w3.org/2000/svg" xmlns:xlink="http://www.w3.org/1999/xlink" xml:space="preserve" xmlns:serif="http://www.serif.com/" style="fill-rule:evenodd;clip-rule:evenodd;stroke-linejoin:round;stroke-miterlimit:2;"><path d="M551,0l475,80l0,441c-0.147,369.609 -378.629,559.656 -475,581c-96.371,-21.344 -474.853,-211.391 -475,-581l0,-441l475,-80Zm-209.774,400.541l0.001,134.463l129.102,-0.002l129.052,-135.036l89.811,-0.001l154.235,-160.872l-346.838,0.005l-155.363,161.443Zm419.55,200.918l-0.003,-134.463l-129.102,0.002l-129.051,135.036l-89.811,0.001l-154.236,160.872l346.839,-0.005l155.364,-161.443Z" style="fill:url(#_Radial1);"/><defs><radialGradient id="_Radial1" cx="0" cy="0" r="1" gradientUnits="userSpaceOnUse" gradientTransform="matrix(-915.25,1585.26,-1284.36,-741.524,991.25,-225.224)"><stop offset="0" style="stop-color:#ffe66b;stop-opacity:1"/><stop offset="0.43" style="stop-color:#e7b94a;stop-opacity:1"/><stop offset="1" style="stop-color:#b35600;stop-opacity:1"/></radialGradient></defs></svg>

<?xml version="1.0" encoding="UTF-8" standalone="no"?>
<!DOCTYPE svg PUBLIC "-//W3C//DTD SVG 1.1//EN" "http://www.w3.org/Graphics/SVG/1.1/DTD/svg11.dtd">
<svg width="100%" height="100%" viewBox="0 0 1102 1102" version="1.1" xmlns="http://www.w3.org/2000/svg" xmlns:xlink="http://www.w3.org/1999/xlink" xml:space="preserve" xmlns:serif="http://www.serif.com/" style="fill-rule:evenodd;clip-rule:evenodd;stroke-linejoin:round;stroke-miterlimit:2;">
    <g transform="matrix(0.951299,0,0,0.951299,26.8344,26.8344)">
        <path d="M551,-6.307L1026,73.693L1026,521C1025.85,890.609 647.371,1080.66 551,1102C454.629,1080.66 76.147,890.609 76,521L76,73.693L551,-6.307Z" style="fill:url(#_Radial1);"/>
    </g>
    <path d="M551,0L1026,80L1026,521C1025.85,890.609 647.371,1080.66 551,1102C454.629,1080.66 76.147,890.609 76,521L76,80L551,0ZM551,64.901L140,134.122L140,520.98C140.067,685.227 225.501,808.949 320.319,894.609C406.982,972.901 501.777,1020.38 551,1035.76C600.222,1020.38 695.018,972.901 781.681,894.609C876.499,808.949 961.933,685.227 962,520.98L962,134.122L551,64.901Z" style="fill:url(#_Radial2);"/>
    <path d="M341.226,400.541L341.227,535.004L470.329,535.002L599.381,399.966L689.192,399.965L843.427,239.093L496.589,239.098L341.226,400.541ZM760.776,601.459L760.773,466.996L631.671,466.998L502.62,602.034L412.809,602.035L258.573,762.907L605.412,762.902L760.776,601.459Z" style="fill:url(#_Radial3);"/>
    <defs>
        <radialGradient id="_Radial1" cx="0" cy="0" r="1" gradientUnits="userSpaceOnUse" gradientTransform="matrix(-915.25,1585.26,-1284.36,-741.524,991.25,-225.224)"><stop offset="0" style="stop-color:rgb(77,77,77);stop-opacity:1"/><stop offset="0.43" style="stop-color:rgb(53,53,53);stop-opacity:1"/><stop offset="1" style="stop-color:black;stop-opacity:1"/></radialGradient>
        <radialGradient id="_Radial2" cx="0" cy="0" r="1" gradientUnits="userSpaceOnUse" gradientTransform="matrix(-915.25,1585.26,-1284.36,-741.524,991.25,-225.224)"><stop offset="0" style="stop-color:rgb(255,230,107);stop-opacity:1"/><stop offset="0.43" style="stop-color:rgb(231,185,74);stop-opacity:1"/><stop offset="1" style="stop-color:rgb(179,86,0);stop-opacity:1"/></radialGradient>
        <radialGradient id="_Radial3" cx="0" cy="0" r="1" gradientUnits="userSpaceOnUse" gradientTransform="matrix(-915.25,1585.26,-1284.36,-741.524,991.25,-225.224)"><stop offset="0" style="stop-color:rgb(255,230,107);stop-opacity:1"/><stop offset="0.43" style="stop-color:rgb(231,185,74);stop-opacity:1"/><stop offset="1" style="stop-color:rgb(179,86,0);stop-opacity:1"/></radialGradient>
    </defs>
</svg>
